svgs/twire.svg

<svg viewBox="0 0 192 192" xml:space="preserve" style="fill-rule:evenodd;clip-rule:evenodd;stroke-linejoin:round;stroke-miterlimit:2" xmlns="http://www.w3.org/2000/svg"><path d="M23.972 969.282a6.001 6.001 0 0 0-1.312 6.702C35.01 1004.24 63.215 1024 96 1024c44.153 0 80-35.847 80-80 0-2.399-.106-4.773-.313-7.119a6.001 6.001 0 0 0-10.22-3.713l-29.974 29.977c-.415.416-.767.89-1.045 1.407-7.351 13.708-21.818 23.042-38.448 23.042-20.834 0-38.277-14.646-42.577-34.196a6.001 6.001 0 0 0-10.046-3.01l-19.405 18.894Zm139.55-17.198C159.52 985.811 130.794 1012 96 1012c-26.411 0-49.324-15.09-60.586-37.11l9.408-9.16C53.29 985.627 73.027 999.594 96 999.594c20.879 0 39.087-11.534 48.588-28.574l18.934-18.936ZM96 913.173c-17.014 0-30.827 13.813-30.827 30.827 0 17.014 13.813 30.827 30.827 30.827 17.014 0 30.827-13.813 30.827-30.827 0-17.014-13.813-30.827-30.827-30.827Zm0 12c10.391 0 18.827 8.436 18.827 18.827 0 10.391-8.436 18.827-18.827 18.827-10.391 0-18.827-8.436-18.827-18.827 0-10.391 8.436-18.827 18.827-18.827Zm-38.323-2.355c.334-.34.626-.718.871-1.127 7.614-12.742 21.543-21.285 37.452-21.285 20.555 0 37.809 14.256 42.397 33.413a6 6 0 0 0 10.165 2.756l18.86-19.661a6 6 0 0 0 1.107-6.691C155.787 882.929 128.086 864 96 864c-44.153 0-80 35.847-80 80 0 2.293.097 4.563.286 6.807a6.001 6.001 0 0 0 10.259 3.7l31.132-31.689Zm-9.048-7.913-20.083 20.442C32.802 901.896 61.401 876 96 876c25.83 0 48.315 14.434 59.826 35.668l-9.125 9.513c-8.716-19.316-28.149-32.775-50.701-32.775-20.019 0-37.583 10.603-47.371 26.499Zm0 0-.002.003.002-.003Z" style="fill-rule:evenodd;clip-rule:evenodd;stroke-linejoin:round;stroke-miterlimit:2" transform="translate(0 -848)"/></svg>

<?xml version="1.0" encoding="UTF-8" standalone="no"?>
<svg
   width="100%"
   height="100%"
   viewBox="0 0 192 192"
   version="1.1"
   xml:space="preserve"
   style="fill-rule:evenodd;clip-rule:evenodd;stroke-linejoin:round;stroke-miterlimit:2;"
   id="svg10"
   sodipodi:docname="twire.svg"
   inkscape:version="1.2.1 (9c6d41e410, 2022-07-14)"
   xmlns:inkscape="http://www.inkscape.org/namespaces/inkscape"
   xmlns:sodipodi="http://sodipodi.sourceforge.net/DTD/sodipodi-0.dtd"
   xmlns="http://www.w3.org/2000/svg"
   xmlns:svg="http://www.w3.org/2000/svg"><defs
   id="defs14" /><sodipodi:namedview
   id="namedview12"
   pagecolor="#ffffff"
   bordercolor="#000000"
   borderopacity="0.25"
   inkscape:showpageshadow="2"
   inkscape:pageopacity="0.0"
   inkscape:pagecheckerboard="0"
   inkscape:deskcolor="#d1d1d1"
   showgrid="false"
   inkscape:zoom="5.3489583"
   inkscape:cx="96"
   inkscape:cy="95.906524"
   inkscape:window-width="2552"
   inkscape:window-height="1303"
   inkscape:window-x="4"
   inkscape:window-y="36"
   inkscape:window-maximized="0"
   inkscape:current-layer="svg10" />
    <path
   d="M23.972,969.282C22.182,971.025 21.66,973.694 22.66,975.984C35.01,1004.24 63.215,1024 96,1024C140.153,1024 176,988.153 176,944C176,941.601 175.894,939.227 175.687,936.881C175.481,934.56 173.95,932.567 171.759,931.771C169.569,930.975 167.115,931.519 165.467,933.168L135.493,963.145C135.078,963.561 134.726,964.035 134.448,964.552C127.097,978.26 112.63,987.594 96,987.594C75.166,987.594 57.723,972.948 53.423,953.398C52.955,951.271 51.371,949.564 49.285,948.939C47.199,948.314 44.937,948.869 43.377,950.388L23.972,969.282ZM163.522,952.084C159.52,985.811 130.794,1012 96,1012C69.589,1012 46.676,996.91 35.414,974.89L44.822,965.73C53.29,985.627 73.027,999.594 96,999.594C116.879,999.594 135.087,988.06 144.588,971.02L163.522,952.084ZM96,913.173C78.986,913.173 65.173,926.986 65.173,944C65.173,961.014 78.986,974.827 96,974.827C113.014,974.827 126.827,961.014 126.827,944C126.827,926.986 113.014,913.173 96,913.173ZM96,925.173C106.391,925.173 114.827,933.609 114.827,944C114.827,954.391 106.391,962.827 96,962.827C85.609,962.827 77.173,954.391 77.173,944C77.173,933.609 85.609,925.173 96,925.173ZM57.677,922.818C58.011,922.478 58.303,922.1 58.548,921.691C66.162,908.949 80.091,900.406 96,900.406C116.555,900.406 133.809,914.662 138.397,933.819C138.909,935.954 140.544,937.638 142.662,938.213C144.781,938.787 147.043,938.159 148.562,936.575L167.422,916.914C169.137,915.126 169.577,912.468 168.529,910.223C155.787,882.929 128.086,864 96,864C51.847,864 16,899.847 16,944C16,946.293 16.097,948.563 16.286,950.807C16.484,953.143 18.024,955.151 20.23,955.946C22.435,956.741 24.902,956.179 26.545,954.507L57.677,922.818ZM48.629,914.905L28.546,935.347C32.802,901.896 61.401,876 96,876C121.83,876 144.315,890.434 155.826,911.668C155.826,911.668 146.701,921.181 146.701,921.181C137.985,901.865 118.552,888.406 96,888.406C75.981,888.406 58.417,899.009 48.629,914.905ZM48.629,914.905L48.629,914.905L48.627,914.908L48.629,914.905Z"
   id="path4"
   style="fill-rule:evenodd;clip-rule:evenodd;stroke-linejoin:round;stroke-miterlimit:2"
   transform="translate(0,-848)"
   inkscape:label="twire_form" />
</svg>
